svg/color/cocos.svg

<?xml version="1.0" encoding="UTF-8" ?>
<!DOCTYPE svg PUBLIC "-//W3C//DTD SVG 1.1//EN" "http://www.w3.org/Graphics/SVG/1.1/DTD/svg11.dtd">
<svg width="250pt" height="250pt" viewBox="0 0 250 250" version="1.1" xmlns="http://www.w3.org/2000/svg">
<g id="#ffffffff">
<path fill="#ffffff" opacity="1.00" d=" M 0.00 0.00 L 250.00 0.00 L 250.00 250.00 L 0.00 250.00 L 0.00 0.00 M 111.42 15.01 C 122.99 63.41 134.76 111.76 146.44 160.14 C 147.63 164.45 148.22 168.94 149.97 173.09 C 151.64 170.70 152.35 167.86 153.11 165.10 C 159.48 143.09 166.12 121.17 172.51 99.17 C 173.91 94.17 175.83 89.29 176.76 84.18 C 175.97 81.84 174.52 79.82 173.28 77.71 C 164.36 63.11 153.26 49.93 140.94 38.09 C 131.67 29.72 122.22 21.38 111.42 15.01 M 93.57 46.54 C 76.16 64.22 62.25 85.78 55.64 109.85 C 55.00 112.71 53.38 116.04 55.10 118.80 C 70.11 141.05 85.07 163.33 99.99 185.64 C 106.14 184.80 111.94 182.45 117.98 181.09 C 126.95 178.40 136.04 176.15 145.01 173.47 C 144.48 169.65 143.64 165.90 142.62 162.20 C 132.19 118.55 121.39 75.00 111.12 31.31 C 104.86 35.88 98.97 40.98 93.57 46.54 M 157.85 164.03 C 157.14 166.19 156.57 168.40 156.24 170.65 C 168.17 166.69 180.46 163.89 192.53 160.37 C 198.14 132.96 193.24 104.46 183.03 78.72 C 174.68 107.17 166.22 135.59 157.85 164.03 M 44.24 110.01 C 43.77 129.00 45.37 148.29 51.54 166.36 C 55.17 176.59 59.86 186.64 66.81 195.06 C 76.40 192.44 86.03 189.99 95.54 187.10 C 95.56 186.93 95.60 186.58 95.62 186.41 C 78.47 160.97 61.33 135.50 44.24 110.01 M 158.27 174.18 C 157.02 174.60 155.59 174.69 154.51 175.51 C 153.23 178.96 151.53 182.73 152.72 186.45 C 154.91 195.13 156.95 203.85 159.04 212.56 C 160.27 212.82 161.18 211.73 162.16 211.18 C 179.58 198.98 192.66 181.36 201.75 162.31 C 187.24 166.19 172.77 170.23 158.27 174.18 M 102.89 189.44 C 110.13 201.14 118.17 212.34 125.75 223.82 C 129.23 223.29 132.73 222.84 136.21 222.31 C 139.94 210.03 143.47 197.69 147.17 185.40 C 148.04 182.77 146.99 180.08 146.45 177.51 C 131.90 181.37 117.43 185.55 102.89 189.44 M 69.60 198.73 C 82.72 213.01 101.23 222.66 120.73 223.84 C 113.36 212.72 105.95 201.62 98.39 190.63 C 88.85 193.54 79.12 195.79 69.60 198.73 M 149.45 191.82 C 146.89 201.59 143.52 211.14 141.09 220.95 C 146.09 219.63 150.91 217.70 155.48 215.28 C 153.38 207.48 152.12 199.43 149.45 191.82 Z" />
</g>
<g id="#888888ff">
<path fill="#888888" opacity="1.00" d=" M 111.42 15.01 C 122.22 21.38 131.67 29.72 140.94 38.09 C 153.26 49.93 164.36 63.11 173.28 77.71 C 174.52 79.82 175.97 81.84 176.76 84.18 C 175.83 89.29 173.91 94.17 172.51 99.17 C 166.12 121.17 159.48 143.09 153.11 165.10 C 152.35 167.86 151.64 170.70 149.97 173.09 C 148.22 168.94 147.63 164.45 146.44 160.14 C 134.76 111.76 122.99 63.41 111.42 15.01 Z" />
<path fill="#888888" opacity="1.00" d=" M 44.24 110.01 C 61.33 135.50 78.47 160.97 95.62 186.41 C 95.60 186.58 95.56 186.93 95.54 187.10 C 86.03 189.99 76.40 192.44 66.81 195.06 C 59.86 186.64 55.17 176.59 51.54 166.36 C 45.37 148.29 43.77 129.00 44.24 110.01 Z" />
</g>
<g id="#68c6e0ff">
<path fill="#68c6e0" opacity="1.00" d=" M 93.57 46.54 C 98.97 40.98 104.86 35.88 111.12 31.31 C 121.39 75.00 132.19 118.55 142.62 162.20 C 143.64 165.90 144.48 169.65 145.01 173.47 C 136.04 176.15 126.95 178.40 117.98 181.09 C 111.94 182.45 106.14 184.80 99.99 185.64 C 85.07 163.33 70.11 141.05 55.10 118.80 C 53.38 116.04 55.00 112.71 55.64 109.85 C 62.25 85.78 76.16 64.22 93.57 46.54 Z" />
</g>
<g id="#4a4747ff">
<path fill="#4a4747" opacity="1.00" d=" M 157.85 164.03 C 166.22 135.59 174.68 107.17 183.03 78.72 C 193.24 104.46 198.14 132.96 192.53 160.37 C 180.46 163.89 168.17 166.69 156.24 170.65 C 156.57 168.40 157.14 166.19 157.85 164.03 Z" />
<path fill="#4a4747" opacity="1.00" d=" M 158.27 174.18 C 172.77 170.23 187.24 166.19 201.75 162.31 C 192.66 181.36 179.58 198.98 162.16 211.18 C 161.18 211.73 160.27 212.82 159.04 212.56 C 156.95 203.85 154.91 195.13 152.72 186.45 C 151.53 182.73 153.23 178.96 154.51 175.51 C 155.59 174.69 157.02 174.60 158.27 174.18 Z" />
<path fill="#4a4747" opacity="1.00" d=" M 102.89 189.44 C 117.43 185.55 131.90 181.37 146.45 177.51 C 146.99 180.08 148.04 182.77 147.17 185.40 C 143.47 197.69 139.94 210.03 136.21 222.31 C 132.73 222.84 129.23 223.29 125.75 223.82 C 118.17 212.34 110.13 201.14 102.89 189.44 Z" />
<path fill="#4a4747" opacity="1.00" d=" M 69.60 198.73 C 79.12 195.79 88.85 193.54 98.39 190.63 C 105.95 201.62 113.36 212.72 120.73 223.84 C 101.23 222.66 82.72 213.01 69.60 198.73 Z" />
<path fill="#4a4747" opacity="1.00" d=" M 149.45 191.82 C 152.12 199.43 153.38 207.48 155.48 215.28 C 150.91 217.70 146.09 219.63 141.09 220.95 C 143.52 211.14 146.89 201.59 149.45 191.82 Z" />
</g>
</svg>

<?xml version="1.0" encoding="utf-8"?>
<!-- Generator: Adobe Illustrator 26.0.3, SVG Export Plug-In . SVG Version: 6.00 Build 0)  -->
<svg version="1.1" id="Layer_1" xmlns="http://www.w3.org/2000/svg" xmlns:xlink="http://www.w3.org/1999/xlink" x="0px" y="0px"
	 viewBox="0 0 250 250" style="enable-background:new 0 0 250 250;" xml:space="preserve">
<style type="text/css">
	.st0{fill:#888888;}
	.st1{fill:#68C6E0;}
	.st2{fill:#4A4747;}
</style>
<g id="_x23_888888ff">
	<path class="st0" d="M111.4,15c10.8,6.4,20.2,14.7,29.5,23.1c12.3,11.8,23.4,25,32.3,39.6c1.2,2.1,2.7,4.1,3.5,6.5
		c-0.9,5.1-2.8,10-4.2,15c-6.4,22-13,43.9-19.4,65.9c-0.8,2.8-1.5,5.6-3.1,8c-1.8-4.1-2.3-8.6-3.5-12.9
		C134.8,111.8,123,63.4,111.4,15z"/>
	<path class="st0" d="M44.2,110c17.1,25.5,34.2,51,51.4,76.4c0,0.2-0.1,0.5-0.1,0.7c-9.5,2.9-19.1,5.3-28.7,8
		c-6.9-8.4-11.6-18.5-15.3-28.7C45.4,148.3,43.8,129,44.2,110z"/>
</g>
<g id="_x23_68c6e0ff">
	<path class="st1" d="M93.6,46.5c5.4-5.6,11.3-10.7,17.6-15.2c10.3,43.7,21.1,87.2,31.5,130.9c1,3.7,1.9,7.4,2.4,11.3
		c-9,2.7-18.1,4.9-27,7.6c-6,1.4-11.8,3.7-18,4.6c-14.9-22.3-29.9-44.6-44.9-66.8c-1.7-2.8-0.1-6.1,0.5-9
		C62.2,85.8,76.2,64.2,93.6,46.5z"/>
</g>
<g id="_x23_4a4747ff">
	<path class="st2" d="M157.9,164c8.4-28.4,16.8-56.9,25.2-85.3c10.2,25.7,15.1,54.2,9.5,81.6c-12.1,3.5-24.4,6.3-36.3,10.3
		C156.6,168.4,157.1,166.2,157.9,164z"/>
	<path class="st2" d="M158.3,174.2c14.5-3.9,29-8,43.5-11.9c-9.1,19.1-22.2,36.7-39.6,48.9c-1,0.6-1.9,1.6-3.1,1.4
		c-2.1-8.7-4.1-17.4-6.3-26.1c-1.2-3.7,0.5-7.5,1.8-10.9C155.6,174.7,157,174.6,158.3,174.2z"/>
	<path class="st2" d="M102.9,189.4c14.5-3.9,29-8.1,43.6-11.9c0.5,2.6,1.6,5.3,0.7,7.9c-3.7,12.3-7.2,24.6-11,36.9
		c-3.5,0.5-7,1-10.5,1.5C118.2,212.3,110.1,201.1,102.9,189.4z"/>
	<path class="st2" d="M69.6,198.7c9.5-2.9,19.2-5.2,28.8-8.1c7.6,11,15,22.1,22.3,33.2C101.2,222.7,82.7,213,69.6,198.7z"/>
	<path class="st2" d="M149.4,191.8c2.7,7.6,3.9,15.7,6,23.5c-4.6,2.4-9.4,4.4-14.4,5.7C143.5,211.1,146.9,201.6,149.4,191.8z"/>
</g>
</svg>
